src/section/s9/logos/05.svg

<svg width="85" height="35" viewBox="0 0 85 35" fill="none" xmlns="http://www.w3.org/2000/svg">
<path d="M53.6674 20.039H31.3748C35.1294 13.4518 38.8207 6.97319 42.6205 0.304688C46.3209 6.91593 49.9489 13.3976 53.6644 20.039H53.6674ZM46.8783 11.674C43.3196 13.8345 39.8754 15.9288 36.2081 18.1557H50.3889C50.3346 17.9718 50.3226 17.8483 50.2683 17.7489C49.1624 15.7601 48.0535 13.7773 46.8814 11.674H46.8783ZM45.0914 10.5621C45.0703 10.4807 45.0493 10.3963 45.0282 10.315C43.7927 10.315 42.5391 10.4415 41.3218 10.2848C39.6373 10.0679 38.6218 10.6344 37.9589 12.2134C37.4406 13.4428 36.6541 14.5608 35.9882 15.7299C36.0484 15.7872 36.1087 15.8474 36.169 15.9047C39.1431 14.1238 42.1173 12.346 45.0945 10.5651L45.0914 10.5621ZM42.6205 4.21599C41.7466 5.74676 40.9903 7.06961 40.1918 8.47081H45.0673C44.2387 7.02743 43.4763 5.70458 42.6205 4.21599Z" fill="#231815"/>
<path d="M42.479 29.4377V34.6809H40.3245V26.1291C41.4605 25.9031 42.4037 25.9724 43.1088 27.0662C43.5969 27.8226 44.284 28.4523 44.9409 29.2087C45.5556 28.5036 46.2125 27.9009 46.6826 27.1777C47.3877 26.0989 48.3098 25.8368 49.5573 26.1411V34.696H47.4209V29.4377C46.7007 30.2634 46.1251 30.872 45.6159 31.529C45.1458 32.1346 44.7751 32.1979 44.287 31.544C43.7868 30.8811 43.2082 30.2754 42.482 29.4377H42.479Z" fill="#231815"/>
<path d="M14.2078 34.7559V26.2041C15.9826 26.2041 17.7334 26.0052 19.4208 26.2523C21.6537 26.5777 22.8741 28.3014 22.841 30.5282C22.8078 32.6948 21.5241 34.1924 19.2852 34.6233C18.7519 34.7258 18.1944 34.7409 17.649 34.7499C16.528 34.768 15.4071 34.7559 14.2078 34.7559ZM16.4256 33.0986C17.875 33.0865 19.2943 33.3276 20.1681 31.8812C20.7377 30.938 20.6925 29.5338 20.0355 28.6991C19.0863 27.4908 17.7695 27.6746 16.4286 27.7439V33.0986H16.4256Z" fill="#231815"/>
<path d="M35.9128 34.756C35.2137 34.756 34.605 34.8133 34.0174 34.7289C33.7673 34.6927 33.4268 34.3854 33.3636 34.1413C33.1195 33.1981 32.562 32.8727 31.6339 33.0264C31.3657 33.0716 31.0825 33.0625 30.8113 33.0264C29.7024 32.8908 28.7562 32.9842 28.5332 34.3733C28.5091 34.524 28.1987 34.7259 28.0089 34.741C27.4152 34.7892 26.8126 34.759 26.0623 34.759C26.8457 32.8034 27.5659 31.0074 28.2861 29.2115C28.6145 28.3919 29.0033 27.5933 29.2715 26.7556C29.4553 26.1801 29.7777 26.0987 30.3261 26.0234C31.6851 25.8366 32.3752 26.3428 32.8664 27.6355C33.7312 29.9076 34.8039 32.1013 35.7893 34.3281C35.8254 34.4095 35.8375 34.5029 35.9068 34.756H35.9128ZM29.6993 31.3871H32.1763C31.7514 30.3686 31.3567 29.4164 30.8806 28.2713C30.4376 29.4345 30.0851 30.3656 29.6963 31.3871H29.6993Z" fill="#231815"/>
<path d="M9.9018 34.7589C9.37748 34.7589 9.03999 34.7167 8.71455 34.7679C7.81959 34.9065 7.25911 34.6172 7.08735 33.6771C6.99997 33.201 6.69863 32.972 6.16829 33.0202C5.65602 33.0684 5.12869 33.0744 4.61642 33.0202C3.56477 32.9117 2.68488 32.9961 2.5101 34.3189C2.48901 34.4816 2.19973 34.7167 2.02194 34.7318C1.39517 34.783 0.762373 34.7528 0 34.7528C1.15109 31.8932 2.2389 29.1691 3.35986 26.4572C3.43821 26.2703 3.7516 26.0925 3.97157 26.0714C6.00858 25.8575 5.99653 25.8726 6.82821 27.786C7.62975 29.6242 8.46143 31.4502 9.27804 33.2823C9.4709 33.7193 9.6517 34.1622 9.9018 34.7619V34.7589ZM3.61901 31.396H6.12007C5.68917 30.3654 5.30045 29.4313 4.82133 28.2802C4.39042 29.4012 4.03485 30.3202 3.62202 31.396H3.61901Z" fill="#231815"/>
<path d="M76.9545 27.7287V26.1196H85C83.4482 28.4519 81.9596 30.6909 80.3655 33.0895H84.9729V34.6926H76.5898C78.1357 32.3813 79.6423 30.1304 81.2515 27.7257H76.9545V27.7287Z" fill="#231815"/>
<path d="M66.0553 26.0776H72.2446V27.6657H68.2851V29.4164H72.0638V31.0496H68.261V33.0686H72.3742V34.6747H66.0522V26.0776H66.0553Z" fill="#231815"/>
<path d="M60.8813 28.3892C60.1219 28.124 59.7061 27.9432 59.2692 27.8347C58.772 27.7112 58.2477 27.5484 57.7535 27.5967C57.3919 27.6328 57.0604 27.9763 56.7169 28.1843C56.961 28.4615 57.1568 28.8351 57.4612 29.0009C58.0759 29.3293 58.7629 29.5161 59.3987 29.8054C60.592 30.3539 61.2037 31.3513 61.0832 32.4692C60.9627 33.5992 60.1792 34.5062 58.8865 34.7051C58.0036 34.8407 57.0212 34.901 56.1865 34.6478C54.3394 34.0904 54.4569 34.2802 54.6618 32.1829C55.0806 32.3999 55.4573 32.6832 55.8792 32.7946C56.5722 32.9785 57.2924 33.108 58.0066 33.1382C58.2507 33.1472 58.6635 32.8308 58.7208 32.5958C58.775 32.3728 58.5189 31.9991 58.2959 31.8093C58.0548 31.6014 57.6932 31.5351 57.3889 31.3995C56.7772 31.1283 56.1323 30.9113 55.5688 30.5618C54.7281 30.0435 54.3092 29.2389 54.4147 28.2385C54.5172 27.2772 55.0686 26.6294 55.9605 26.2617C57.4793 25.638 58.9889 25.867 60.3811 26.542C60.7095 26.7017 60.6854 27.5876 60.8843 28.3861L60.8813 28.3892Z" fill="#231815"/>
</svg>

<?xml version="1.0" encoding="utf-8"?>
<!-- Generator: Adobe Illustrator 27.6.1, SVG Export Plug-In . SVG Version: 6.00 Build 0)  -->
<svg version="1.1" id="圖層_1" xmlns="http://www.w3.org/2000/svg" xmlns:xlink="http://www.w3.org/1999/xlink" x="0px" y="0px"
	 viewBox="0 0 85 35" style="enable-background:new 0 0 85 35;" xml:space="preserve">
<style type="text/css">
	.st0{fill:#231815;}
</style>
<path class="st0" d="M53.7,20H31.4C35.1,13.5,38.8,7,42.6,0.3C46.3,6.9,49.9,13.4,53.7,20L53.7,20z M46.9,11.7
	c-3.6,2.2-7,4.3-10.7,6.5h14.2c-0.1-0.2-0.1-0.3-0.1-0.4C49.2,15.8,48.1,13.8,46.9,11.7L46.9,11.7z M45.1,10.6c0-0.1,0-0.2-0.1-0.2
	c-1.2,0-2.5,0.1-3.7,0c-1.7-0.2-2.7,0.3-3.4,1.9c-0.5,1.2-1.3,2.3-2,3.5c0.1,0.1,0.1,0.1,0.2,0.2C39.1,14.1,42.1,12.3,45.1,10.6
	L45.1,10.6z M42.6,4.2c-0.9,1.5-1.6,2.9-2.4,4.3h4.9C44.2,7,43.5,5.7,42.6,4.2z"/>
<path class="st0" d="M42.5,29.4v5.2h-2.2v-8.6c1.1-0.2,2.1-0.2,2.8,0.9c0.5,0.8,1.2,1.4,1.8,2.1c0.6-0.7,1.3-1.3,1.7-2
	c0.7-1.1,1.6-1.3,2.9-1v8.6h-2.1v-5.3c-0.7,0.8-1.3,1.4-1.8,2.1c-0.5,0.6-0.8,0.7-1.3,0C43.8,30.9,43.2,30.3,42.5,29.4L42.5,29.4z"
	/>
<path class="st0" d="M14.2,34.8v-8.6c1.8,0,3.5-0.2,5.2,0c2.2,0.3,3.5,2,3.4,4.3c0,2.2-1.3,3.7-3.6,4.1c-0.5,0.1-1.1,0.1-1.6,0.1
	C16.5,34.8,15.4,34.8,14.2,34.8z M16.4,33.1c1.4,0,2.9,0.2,3.7-1.2c0.6-0.9,0.5-2.3-0.1-3.2c-0.9-1.2-2.3-1-3.6-1L16.4,33.1
	L16.4,33.1z"/>
<path class="st0" d="M35.9,34.8c-0.7,0-1.3,0.1-1.9,0c-0.3,0-0.6-0.3-0.7-0.6c-0.2-0.9-0.8-1.3-1.7-1.1c-0.3,0-0.6,0-0.8,0
	c-1.1-0.1-2.1,0-2.3,1.3c0,0.2-0.3,0.4-0.5,0.4c-0.6,0-1.2,0-1.9,0c0.8-2,1.5-3.8,2.2-5.5c0.3-0.8,0.7-1.6,1-2.5
	c0.2-0.6,0.5-0.7,1.1-0.7c1.4-0.2,2,0.3,2.5,1.6c0.9,2.3,1.9,4.5,2.9,6.7C35.8,34.4,35.8,34.5,35.9,34.8L35.9,34.8z M29.7,31.4h2.5
	c-0.4-1-0.8-2-1.3-3.1C30.4,29.4,30.1,30.4,29.7,31.4L29.7,31.4z"/>
<path class="st0" d="M9.9,34.8c-0.5,0-0.9,0-1.2,0c-0.9,0.1-1.5-0.2-1.6-1.1C7,33.2,6.7,33,6.2,33c-0.5,0-1,0.1-1.6,0
	c-1.1-0.1-1.9,0-2.1,1.3c0,0.2-0.3,0.4-0.5,0.4c-0.6,0.1-1.3,0-2,0c1.2-2.9,2.2-5.6,3.4-8.3c0.1-0.2,0.4-0.4,0.6-0.4
	c2-0.2,2-0.2,2.9,1.7c0.8,1.8,1.6,3.7,2.4,5.5C9.5,33.7,9.7,34.2,9.9,34.8L9.9,34.8z M3.6,31.4h2.5c-0.4-1-0.8-2-1.3-3.1
	C4.4,29.4,4,30.3,3.6,31.4L3.6,31.4z"/>
<path class="st0" d="M77,27.7v-1.6h8c-1.6,2.3-3,4.6-4.6,7H85v1.6h-8.4c1.5-2.3,3.1-4.6,4.7-7L77,27.7L77,27.7z"/>
<path class="st0" d="M66.1,26.1h6.2v1.6h-4v1.8h3.8V31h-3.8v2h4.1v1.6h-6.3L66.1,26.1L66.1,26.1z"/>
<path class="st0" d="M60.9,28.4c-0.8-0.3-1.2-0.4-1.6-0.6c-0.5-0.1-1-0.3-1.5-0.2c-0.4,0-0.7,0.4-1,0.6c0.2,0.3,0.4,0.7,0.7,0.8
	c0.6,0.3,1.3,0.5,1.9,0.8c1.2,0.5,1.8,1.5,1.7,2.7c-0.1,1.1-0.9,2-2.2,2.2c-0.9,0.1-1.9,0.2-2.7-0.1c-1.8-0.6-1.7-0.4-1.5-2.5
	c0.4,0.2,0.8,0.5,1.2,0.6c0.7,0.2,1.4,0.3,2.1,0.3c0.2,0,0.7-0.3,0.7-0.5c0.1-0.2-0.2-0.6-0.4-0.8c-0.2-0.2-0.6-0.3-0.9-0.4
	c-0.6-0.3-1.3-0.5-1.8-0.8c-0.8-0.5-1.3-1.3-1.2-2.3c0.1-1,0.7-1.6,1.5-2c1.5-0.6,3-0.4,4.4,0.3C60.7,26.7,60.7,27.6,60.9,28.4
	L60.9,28.4z"/>
</svg>
